Surfn-Breeze-Dark/16x16/mimetypes/text-x-csharp.svg

<svg width="16" xmlns="http://www.w3.org/2000/svg" height="16" viewBox="0 0 16 16">
 <path fill="#16907d" d="m5 2v3h-3v1h3v4h-3v1h3v3h1v-3h4v3h1v-3h3v-1h-3v-4h3v-1h-3v-3h-1v3h-4v-3zm1 4h4v4h-4z"/>
</svg>

<?xml version="1.0" encoding="UTF-8" standalone="no"?>
<svg xmlns="http://www.w3.org/2000/svg" width="16" height="16" version="1.1" viewBox="0 0 16 16">
 <g transform="translate(0,-1036.3622)">
  <path style="opacity:1;fill:#16907d;fill-opacity:1" d="M 5 2 L 5 5 L 2 5 L 2 6 L 5 6 L 5 10 L 2 10 L 2 11 L 5 11 L 5 14 L 6 14 L 6 11 L 10 11 L 10 14 L 11 14 L 11 11 L 14 11 L 14 10 L 11 10 L 11 6 L 14 6 L 14 5 L 11 5 L 11 2 L 10 2 L 10 5 L 6 5 L 6 2 L 5 2 z M 6 6 L 10 6 L 10 10 L 6 10 L 6 6 z" transform="translate(0,1036.3622)"/>
 </g>
</svg>
